static/img/kroki/9ccb37d881978944c3ae0a50af212875.svg

<?xml version="1.0" encoding="us-ascii" standalone="no"?><svg xmlns="http://www.w3.org/2000/svg" xmlns:xlink="http://www.w3.org/1999/xlink" contentStyleType="text/css" height="573px" preserveAspectRatio="none" style="width:328px;height:573px;" version="1.1" viewBox="0 0 328 573" width="328px" zoomAndPan="magnify"><defs/><g><!--class gcp_resource--><g id="elem_gcp_resource"><rect codeLine="23" fill="#3D176E" height="39.7891" id="gcp_resource" rx="2.5" ry="2.5" style="stroke:#000D19;stroke-width:0.5;" width="150" x="7" y="267.58"/><ellipse cx="22" cy="287.4745" fill="#ADD1B2" rx="11" ry="11" style="stroke:#181818;stroke-width:1.0;"/><path d="M24.9688,293.1152 Q24.3906,293.412 23.75,293.5527 Q23.1094,293.7089 22.4063,293.7089 Q19.9063,293.7089 18.5781,292.0683 Q17.2656,290.412 17.2656,287.287 Q17.2656,284.162 18.5781,282.5058 Q19.9063,280.8495 22.4063,280.8495 Q23.1094,280.8495 23.75,281.0058 Q24.4063,281.162 24.9688,281.4589 L24.9688,284.1777 Q24.3438,283.5995 23.75,283.3339 Q23.1563,283.0527 22.5313,283.0527 Q21.1875,283.0527 20.5,284.1308 Q19.8125,285.1933 19.8125,287.287 Q19.8125,289.3808 20.5,290.4589 Q21.1875,291.5214 22.5313,291.5214 Q23.1563,291.5214 23.75,291.2558 Q24.3438,290.9745 24.9688,290.3964 L24.9688,293.1152 Z " fill="#000000"/><text fill="#D9B8FF" font-family="Helvetica" font-size="17" lengthAdjust="spacing" textLength="108" x="41" y="293.3598">gcp_resource</text></g><!--class gcp_zone--><g id="elem_gcp_zone"><rect codeLine="26" fill="#3D176E" height="39.7891" id="gcp_zone" rx="2.5" ry="2.5" style="stroke:#000D19;stroke-width:0.5;" width="118" x="75" y="528.16"/><ellipse cx="90" cy="548.0545" fill="#ADD1B2" rx="11" ry="11" style="stroke:#181818;stroke-width:1.0;"/><path d="M92.9688,553.6952 Q92.3906,553.992 91.75,554.1327 Q91.1094,554.2889 90.4063,554.2889 Q87.9063,554.2889 86.5781,552.6483 Q85.2656,550.992 85.2656,547.867 Q85.2656,544.742 86.5781,543.0858 Q87.9063,541.4295 90.4063,541.4295 Q91.1094,541.4295 91.75,541.5858 Q92.4063,541.742 92.9688,542.0389 L92.9688,544.7577 Q92.3438,544.1795 91.75,543.9139 Q91.1563,543.6327 90.5313,543.6327 Q89.1875,543.6327 88.5,544.7108 Q87.8125,545.7733 87.8125,547.867 Q87.8125,549.9608 88.5,551.0389 Q89.1875,552.1014 90.5313,552.1014 Q91.1563,552.1014 91.75,551.8358 Q92.3438,551.5545 92.9688,550.9764 L92.9688,553.6952 Z " fill="#000000"/><text fill="#D9B8FF" font-family="Helvetica" font-size="17" lengthAdjust="spacing" textLength="76" x="109" y="553.9398">gcp_zone</text></g><!--class phantom_resource--><g id="elem_phantom_resource"><rect codeLine="29" fill="#3D176E" height="39.7891" id="phantom_resource" rx="2.5" ry="2.5" style="stroke:#000D19;stroke-width:0.5;" width="198" x="123" y="167.79"/><ellipse cx="138" cy="187.6845" fill="#ADD1B2" rx="11" ry="11" style="stroke:#181818;stroke-width:1.0;"/><path d="M140.9688,193.3252 Q140.3906,193.622 139.75,193.7627 Q139.1094,193.9189 138.4063,193.9189 Q135.9063,193.9189 134.5781,192.2783 Q133.2656,190.622 133.2656,187.497 Q133.2656,184.372 134.5781,182.7158 Q135.9063,181.0595 138.4063,181.0595 Q139.1094,181.0595 139.75,181.2158 Q140.4063,181.372 140.9688,181.6689 L140.9688,184.3877 Q140.3438,183.8095 139.75,183.5439 Q139.1563,183.2627 138.5313,183.2627 Q137.1875,183.2627 136.5,184.3408 Q135.8125,185.4033 135.8125,187.497 Q135.8125,189.5908 136.5,190.6689 Q137.1875,191.7314 138.5313,191.7314 Q139.1563,191.7314 139.75,191.4658 Q140.3438,191.1845 140.9688,190.6064 L140.9688,193.3252 Z " fill="#000000"/><text fill="#D9B8FF" font-family="Helvetica" font-size="17" lengthAdjust="spacing" textLength="156" x="157" y="193.5698">phantom_resource</text></g><!--class resource--><g id="elem_resource"><rect codeLine="32" fill="#3D176E" height="39.7891" id="resource" rx="2.5" ry="2.5" style="stroke:#000D19;stroke-width:0.5;" width="113" x="48.5" y="7"/><ellipse cx="63.5" cy="26.8945" fill="#ADD1B2" rx="11" ry="11" style="stroke:#181818;stroke-width:1.0;"/><path d="M66.4688,32.5352 Q65.8906,32.832 65.25,32.9727 Q64.6094,33.1289 63.9063,33.1289 Q61.4063,33.1289 60.0781,31.4883 Q58.7656,29.832 58.7656,26.707 Q58.7656,23.582 60.0781,21.9258 Q61.4063,20.2695 63.9063,20.2695 Q64.6094,20.2695 65.25,20.4258 Q65.9063,20.582 66.4688,20.8789 L66.4688,23.5977 Q65.8438,23.0195 65.25,22.7539 Q64.6563,22.4727 64.0313,22.4727 Q62.6875,22.4727 62,23.5508 Q61.3125,24.6133 61.3125,26.707 Q61.3125,28.8008 62,29.8789 Q62.6875,30.9414 64.0313,30.9414 Q64.6563,30.9414 65.25,30.6758 Q65.8438,30.3945 66.4688,29.8164 L66.4688,32.5352 Z " fill="#000000"/><text fill="#D9B8FF" font-family="Helvetica" font-size="17" lengthAdjust="spacing" textLength="71" x="82.5" y="32.7798">resource</text></g><!--class zone--><g id="elem_zone"><rect codeLine="35" fill="#3D176E" height="39.7891" id="zone" rx="2.5" ry="2.5" style="stroke:#000D19;stroke-width:0.5;" width="81" x="160.5" y="367.37"/><ellipse cx="175.5" cy="387.2645" fill="#ADD1B2" rx="11" ry="11" style="stroke:#181818;stroke-width:1.0;"/><path d="M178.4688,392.9052 Q177.8906,393.202 177.25,393.3427 Q176.6094,393.4989 175.9063,393.4989 Q173.4063,393.4989 172.0781,391.8583 Q170.7656,390.202 170.7656,387.077 Q170.7656,383.952 172.0781,382.2958 Q173.4063,380.6395 175.9063,380.6395 Q176.6094,380.6395 177.25,380.7958 Q177.9063,380.952 178.4688,381.2489 L178.4688,383.9677 Q177.8438,383.3895 177.25,383.1239 Q176.6563,382.8427 176.0313,382.8427 Q174.6875,382.8427 174,383.9208 Q173.3125,384.9833 173.3125,387.077 Q173.3125,389.1708 174,390.2489 Q174.6875,391.3114 176.0313,391.3114 Q176.6563,391.3114 177.25,391.0458 Q177.8438,390.7645 178.4688,390.1864 L178.4688,392.9052 Z " fill="#000000"/><text fill="#D9B8FF" font-family="Helvetica" font-size="17" lengthAdjust="spacing" textLength="39" x="194.5" y="393.1498">zone</text></g><!--reverse link resource to gcp_resource--><g id="link_resource_gcp_resource"><path codeLine="38" d="M101.7166,64.8393 C97.4766,112.5493 88,218.98 83.72,267.08 " fill="none" id="resource-backto-gcp_resource" style="stroke:#FFAF37;stroke-width:2.0;"/><polygon fill="none" points="103.31,46.91,95.7402,64.3082,107.6931,65.3705,103.31,46.91" style="stroke:#FFAF37;stroke-width:2.0;"/></g><!--reverse link gcp_resource to gcp_zone--><g id="link_gcp_resource_gcp_zone"><path codeLine="39" d="M89.3714,325.1362 C98.9714,372.8362 120.43,479.56 130.1,527.66 " fill="none" id="gcp_resource-backto-gcp_zone" style="stroke:#FFAF37;stroke-width:2.0;"/><polygon fill="none" points="85.82,307.49,83.4894,326.32,95.2535,323.9524,85.82,307.49" style="stroke:#FFAF37;stroke-width:2.0;"/></g><!--reverse link zone to gcp_zone--><g id="link_zone_gcp_zone"><path codeLine="40" d="M185.9214,424.0037 C173.0414,454.5237 155.01,497.27 142.11,527.83 " fill="none" id="zone-backto-gcp_zone" style="stroke:#FFAF37;stroke-width:2.0;"/><polygon fill="none" points="192.92,407.42,180.3935,421.6708,191.4493,426.3366,192.92,407.42" style="stroke:#FFAF37;stroke-width:2.0;"/></g><!--reverse link resource to phantom_resource--><g id="link_resource_phantom_resource"><path codeLine="41" d="M129.7881,61.5406 C152.2781,92.0606 185.32,136.9 207.84,167.47 " fill="none" id="resource-backto-phantom_resource" style="stroke:#FFAF37;stroke-width:2.0;"/><polygon fill="none" points="119.11,47.05,124.9579,65.1,134.6183,57.9813,119.11,47.05" style="stroke:#FFAF37;stroke-width:2.0;"/></g><!--reverse link phantom_resource to zone--><g id="link_phantom_resource_zone"><path codeLine="42" d="M218.045,225.8889 C214.025,263.6589 207.08,329.05 203.06,366.88 " fill="none" id="phantom_resource-backto-zone" style="stroke:#FFAF37;stroke-width:2.0;"/><polygon fill="none" points="219.95,207.99,212.0787,225.2539,224.0113,226.5239,219.95,207.99" style="stroke:#FFAF37;stroke-width:2.0;"/></g><!--SRC=[XP3DJiCm48JlVWfBFKTgg22DnALKGd2f4EMEN7lTM8djQErGjS2xGnfe7QS_rvblTsQtK08ewDflgGQz0dJ4bShK39ccCqIxcTlA8Xr9oUGaYyr7Q_nLOC4qq2UeFi0hpcBYhL2yDE0SlGci1yRBDTh6Y6wzHsRShmN61zIyOixDl4UrQZm4PKI-caePa_7IqKIasHqCC8i2y0yPZySYpMFaQjJ5km_4Kks0fk7J5jR3eEOWOazTRDaIGSd1eV_-sOulJ0XbrlGsq5wxJcW0U_goOC9kMbgooeKnpWE2zTiQveEh89yAcPs4dy_1XBUlesjUloCuso07-ad8Tw3lhEbfTS6Cj_eaVqexpX_S-wyaINgXfDVWwBV3PByXqY8sBaK6BJjkF_i3]--></g></svg>

<svg xmlns="http://www.w3.org/2000/svg" width="328" height="573" viewBox="0 0 328 573"><rect width="150" height="39.789" x="7" y="267.58" fill="#3D176E" rx="2.5" ry="2.5" style="stroke:#000d19;stroke-width:.5"/><circle cx="22" cy="287.474" r="11" fill="#ADD1B2" style="stroke:#181818;stroke-width:1"/><path d="M24.969 293.115q-.578.297-1.219.438-.64.156-1.344.156-2.5 0-3.828-1.64-1.312-1.657-1.312-4.782t1.312-4.781q1.328-1.656 3.828-1.656.703 0 1.344.156.656.156 1.219.453v2.719q-.625-.579-1.219-.844-.594-.281-1.219-.281-1.343 0-2.031 1.078-.687 1.062-.687 3.156t.687 3.172q.688 1.062 2.031 1.062.625 0 1.219-.265.594-.281 1.219-.86z"/><text x="41" y="293.36" fill="#D9B8FF" font-family="Helvetica" font-size="17" textLength="108">gcp_resource</text><rect width="118" height="39.789" x="75" y="528.16" fill="#3D176E" rx="2.5" ry="2.5" style="stroke:#000d19;stroke-width:.5"/><circle cx="90" cy="548.054" r="11" fill="#ADD1B2" style="stroke:#181818;stroke-width:1"/><path d="M92.969 553.695q-.578.297-1.219.438-.64.156-1.344.156-2.5 0-3.828-1.64-1.312-1.657-1.312-4.782t1.312-4.781q1.328-1.657 3.828-1.657.703 0 1.344.157.656.156 1.219.453v2.719q-.625-.579-1.219-.844-.594-.281-1.219-.281-1.344 0-2.031 1.078-.687 1.062-.687 3.156t.687 3.172q.688 1.062 2.031 1.062.625 0 1.219-.265.594-.282 1.219-.86z"/><text x="109" y="553.94" fill="#D9B8FF" font-family="Helvetica" font-size="17" textLength="76">gcp_zone</text><rect width="198" height="39.789" x="123" y="167.79" fill="#3D176E" rx="2.5" ry="2.5" style="stroke:#000d19;stroke-width:.5"/><circle cx="138" cy="187.685" r="11" fill="#ADD1B2" style="stroke:#181818;stroke-width:1"/><path d="M140.969 193.325q-.578.297-1.219.438-.64.156-1.344.156-2.5 0-3.828-1.64-1.312-1.657-1.312-4.782t1.312-4.781q1.328-1.656 3.828-1.656.703 0 1.344.156.656.156 1.219.453v2.719q-.625-.578-1.219-.844-.594-.281-1.219-.281-1.344 0-2.031 1.078-.687 1.062-.687 3.156t.687 3.172q.688 1.062 2.031 1.062.625 0 1.219-.265.594-.281 1.219-.86z"/><text x="157" y="193.57" fill="#D9B8FF" font-family="Helvetica" font-size="17" textLength="156">phantom_resource</text><rect width="113" height="39.789" x="48.5" y="7" fill="#3D176E" rx="2.5" ry="2.5" style="stroke:#000d19;stroke-width:.5"/><circle cx="63.5" cy="26.895" r="11" fill="#ADD1B2" style="stroke:#181818;stroke-width:1"/><path d="M66.469 32.535q-.578.297-1.219.438-.64.156-1.344.156-2.5 0-3.828-1.64-1.312-1.657-1.312-4.782t1.312-4.781q1.328-1.656 3.828-1.656.703 0 1.344.156.656.156 1.219.453v2.719q-.625-.578-1.219-.844-.594-.281-1.219-.281-1.344 0-2.031 1.078-.687 1.062-.687 3.156T62 29.879q.688 1.062 2.031 1.062.625 0 1.219-.265.594-.281 1.219-.86z"/><text x="82.5" y="32.78" fill="#D9B8FF" font-family="Helvetica" font-size="17" textLength="71">resource</text><rect width="81" height="39.789" x="160.5" y="367.37" fill="#3D176E" rx="2.5" ry="2.5" style="stroke:#000d19;stroke-width:.5"/><circle cx="175.5" cy="387.264" r="11" fill="#ADD1B2" style="stroke:#181818;stroke-width:1"/><path d="M178.469 392.905q-.578.297-1.219.438-.64.156-1.344.156-2.5 0-3.828-1.64-1.312-1.657-1.312-4.782t1.312-4.781q1.328-1.656 3.828-1.656.703 0 1.344.156.656.156 1.219.453v2.719q-.625-.579-1.219-.844-.594-.281-1.219-.281-1.344 0-2.031 1.078-.687 1.062-.687 3.156t.687 3.172q.688 1.062 2.031 1.062.625 0 1.219-.265.594-.281 1.219-.86z"/><text x="194.5" y="393.15" fill="#D9B8FF" font-family="Helvetica" font-size="17" textLength="39">zone</text><path fill="none" d="M101.717 64.84C97.477 112.55 88 218.98 83.72 267.08m19.59-220.17-7.57 17.398 11.953 1.063z" style="stroke:#ffaf37;stroke-width:2"/><g fill="none"><path d="M89.371 325.136c9.6 47.7 31.059 154.424 40.729 202.524" style="stroke:#ffaf37;stroke-width:2"/><path d="m85.82 307.49-2.33 18.83 11.764-2.368z" style="stroke:#ffaf37;stroke-width:2"/></g><path fill="none" d="M185.921 424.004c-12.88 30.52-30.911 73.266-43.811 103.826m50.81-120.41-12.526 14.25 11.055 4.667z" style="stroke:#ffaf37;stroke-width:2"/><g fill="none"><path d="M129.788 61.54c22.49 30.52 55.532 75.36 78.052 105.93" style="stroke:#ffaf37;stroke-width:2"/><path d="m119.11 47.05 5.848 18.05 9.66-7.119z" style="stroke:#ffaf37;stroke-width:2"/></g><g fill="none"><path d="M218.045 225.889c-4.02 37.77-10.965 103.161-14.985 140.991" style="stroke:#ffaf37;stroke-width:2"/><path d="m219.95 207.99-7.871 17.264 11.932 1.27z" style="stroke:#ffaf37;stroke-width:2"/></g></svg>
